X: 0609
T: Lord MacDonald's Reel
O: Trad
R: reel
Z: John Chambers <jc:trillian.mit.edu>
B: RSCDS 6-__
M: C|
L: 1/8
%
K: G
B \
|: "G"d3e dBgB | dBgB "D7"aAAB | "G"d^cde dBgB | "D7"A{B}c BA "G"BGG2 :|
[| "G"DGBG AGBG | DGBG "C"AGEG | "G"DGBG "(C)"AGBG | "D7"DEDC "G"B,G,G,2 |]
[| "G"DGBG AGBG | DGBG "C"AGEc | "G"BAGF "C"GFED | "D7"EFGA "G"BGG2 |]
